X: 5
T: Siuil A Ruin
R: barndance
M: 4/4
L: 1/8
K: Edor
GA|B2 B2 A>G E>D|E2 E2 E3F|G2 E2 d3B|A2 GE D3E|
E3F G2 AG|E2 ED E2 GA|B>A G>B A>G E>D|E4 E4|
B3c B/A/G3|E2 ED E2 EF|G2 E2 d3B|A2 GE D4|
E3F G2 AG|E2 ED E2 GA|B>A G>B A>G E>D|E4 E2||


Tune 6756	Setting 6756

